SVG_Azure_Grouped/Networking/Private link Service.svg

<?xml version="1.0" encoding="UTF-8" standalone="no"?>
<!-- Generated by Microsoft Visio, SVG Export Private link Service.svg Page-1 -->

<svg
   xmlns:dc="http://purl.org/dc/elements/1.1/"
   xmlns:cc="http://creativecommons.org/ns#"
   xmlns:rdf="http://www.w3.org/1999/02/22-rdf-syntax-ns#"
   xmlns:svg="http://www.w3.org/2000/svg"
   xmlns="http://www.w3.org/2000/svg"
   xmlns:sodipodi="http://sodipodi.sourceforge.net/DTD/sodipodi-0.dtd"
   xmlns:inkscape="http://www.inkscape.org/namespaces/inkscape"
   width="0.78747904in"
   height="0.47242156in"
   viewBox="0 0 56.698399 34.014287"
   xml:space="preserve"
   class="st5"
   version="1.1"
   id="svg73"
   sodipodi:docname="Private link Service.svg"
   style="font-size:12px;overflow:visible;color-interpolation-filters:sRGB;fill:none;fill-rule:evenodd;stroke-linecap:square;stroke-miterlimit:3"
   inkscape:version="0.92.5 (2060ec1f9f, 2020-04-08)"><metadata
   id="metadata77"><rdf:RDF><cc:Work
       rdf:about=""><dc:format>image/svg+xml</dc:format><dc:type
         rdf:resource="http://purl.org/dc/dcmitype/StillImage" /></cc:Work></rdf:RDF></metadata><sodipodi:namedview
   pagecolor="#ffffff"
   bordercolor="#666666"
   borderopacity="1"
   objecttolerance="10"
   gridtolerance="10"
   guidetolerance="10"
   inkscape:pageopacity="0"
   inkscape:pageshadow="2"
   inkscape:window-width="640"
   inkscape:window-height="480"
   id="namedview75"
   showgrid="false"
   inkscape:zoom="1.7347635"
   inkscape:cx="37.796399"
   inkscape:cy="22.67166"
   inkscape:window-x="0"
   inkscape:window-y="0"
   inkscape:window-maximized="0"
   inkscape:current-layer="svg73" />
	<style
   type="text/css"
   id="style2">
	<![CDATA[
		.st1 {fill:url(#grad0-6);stroke:none;stroke-linecap:butt;stroke-width:34}
		.st2 {fill:url(#grad0-10);stroke:none;stroke-linecap:butt;stroke-width:34}
		.st3 {fill:#50e6ff;stroke:none;stroke-linecap:butt;stroke-width:34}
		.st4 {fill:#1490df;stroke:none;stroke-linecap:butt;stroke-width:34}
		.st5 {fill:none;fill-rule:evenodd;font-size:12px;overflow:visible;stroke-linecap:square;stroke-miterlimit:3}
	]]>
	</style>

	<defs
   id="Patterns_And_Gradients">
		<linearGradient
   id="grad0-6"
   x1="-0.013840072"
   y1="101.7484"
   x2="17.062201"
   y2="101.7484"
   gradientTransform="scale(1.1645873,0.85867325)"
   gradientUnits="userSpaceOnUse">
			<stop
   offset="0.23"
   stop-color="#5ea0ef"
   stop-opacity="1"
   id="stop4" />
			<stop
   offset="0.32"
   stop-color="#5b9fee"
   stop-opacity="1"
   id="stop6" />
			<stop
   offset="0.48"
   stop-color="#509aeb"
   stop-opacity="1"
   id="stop8" />
			<stop
   offset="0.57"
   stop-color="#3f92e6"
   stop-opacity="1"
   id="stop10" />
			<stop
   offset="0.75"
   stop-color="#2688df"
   stop-opacity="1"
   id="stop12" />
			<stop
   offset="0.93"
   stop-color="#127fd9"
   stop-opacity="1"
   id="stop14" />
		</linearGradient>
		<linearGradient
   id="grad0-10"
   x1="-0.014646018"
   y1="101.0316"
   x2="16.937663"
   y2="101.0316"
   gradientTransform="scale(1.1563649,0.86477896)"
   gradientUnits="userSpaceOnUse">
			<stop
   offset="0.02"
   stop-color="#5ea0ef"
   stop-opacity="1"
   id="stop17" />
			<stop
   offset="0.14"
   stop-color="#5b9fee"
   stop-opacity="1"
   id="stop19" />
			<stop
   offset="0.23"
   stop-color="#5b9fee"
   stop-opacity="1"
   id="stop21" />
			<stop
   offset="0.34"
   stop-color="#509aeb"
   stop-opacity="1"
   id="stop23" />
			<stop
   offset="0.44"
   stop-color="#3f92e6"
   stop-opacity="1"
   id="stop25" />
			<stop
   offset="0.63"
   stop-color="#2688df"
   stop-opacity="1"
   id="stop27" />
			<stop
   offset="0.93"
   stop-color="#127fd9"
   stop-opacity="1"
   id="stop29" />
		</linearGradient>
	</defs>
	<g
   id="g71"
   transform="translate(-33.999242,-34.004932)">
		<title
   id="title33">Page-1</title>
		<g
   id="group17690-1"
   transform="translate(34,-34.0157)">
			<title
   id="title35">Private link Service.17690</title>
			<g
   id="group17691-2">
				<title
   id="title37">Sheet.17691</title>
				<g
   id="shape17692-3"
   transform="translate(14.4041,-11.9084)">
					<title
   id="title39">Sheet.17692</title>
					<path
   d="M 12.65,87.37 H 6.98 a 7.07368,7.33137 -180 0 0 -1.1,14.56 7.58704,7.86343 0 0 1 0.09,-2.73 4.46593,4.62862 0 0 1 1.02,-9.14 h 5.67 a 4.4817333,4.645 0 0 1 0,9.29 h -1.57 a 3.36992,3.49268 -180 0 0 -0.31,1.46 3.20615,3.32294 -180 0 0 0.22,1.22 h 1.66 a 7.07368,7.33137 -180 1 0 0,-14.66 z"
   class="st1"
   id="path41"
   inkscape:connector-curvature="0"
   style="fill:url(#grad0-6);stroke:none;stroke-width:34;stroke-linecap:butt" />
				</g>
				<g
   id="shape17693-7"
   transform="translate(21.5421,-5.81088)">
					<title
   id="title44">Sheet.17693</title>
					<path
   d="m 13.68,87.48 a 8.32716,8.63052 0 0 1 0.08,1.13 7.26894,7.53375 0 0 1 -0.15,1.6 4.46593,4.62862 0 0 1 -1.03,9.14 H 6.91 a 4.4817333,4.645 0 0 1 0,-9.29 H 8.47 A 3.29118,3.41108 -180 0 0 8.79,88.6 3.23764,3.35559 -180 0 0 8.56,87.37 H 6.92 a 7.07368,7.33137 -180 0 0 0,14.66 h 5.67 a 7.07368,7.33137 -180 0 0 1.1,-14.56 z"
   class="st2"
   id="path46"
   inkscape:connector-curvature="0"
   style="fill:url(#grad0-10);stroke:none;stroke-width:34;stroke-linecap:butt" />
				</g>
				<g
   id="shape17694-11"
   transform="translate(0,-1.0935)">
					<title
   id="title49">Sheet.17694</title>
					<path
   d="m 17.58,100.4 -1.3,1.36 a 0.888147,0.920501 0 0 1 -1.25978,0 L 0.52,86.75 a 1.78259,1.84753 0 0 1 0,-2.61 l 1.31,-1.33 15.75,16.3 a 0.86925,0.900916 0 0 1 0,1.2763 z"
   class="st3"
   id="path51"
   inkscape:connector-curvature="0"
   style="fill:#50e6ff;stroke:none;stroke-width:34;stroke-linecap:butt" />
				</g>
				<g
   id="shape17695-13"
   transform="translate(0,-14.8527)">
					<title
   id="title54">Sheet.17695</title>
					<path
   d="m 16.01,83.14 1.45,1.5 a 0.888147,0.920501 0 0 1 0,1.30568 L 1.97,102.03 0.52,100.54 a 1.78259,1.84753 0 0 1 0,-2.61 L 14.76,83.14 a 0.888147,0.920501 0 0 1 1.25033,0 z"
   class="st4"
   id="path56"
   inkscape:connector-curvature="0"
   style="fill:#1490df;stroke:none;stroke-width:34;stroke-linecap:butt" />
				</g>
				<g
   id="shape17696-15"
   transform="translate(38.8465)">
					<title
   id="title59">Sheet.17696</title>
					<path
   d="M 0.27,100.37 A 0.86925,0.900916 0 0 1 0.2511033,99.0937 L 0.27,99.1 16.01,82.81 l 1.31,1.36 a 1.78259,1.84753 0 0 1 0,2.61 L 2.8,101.76 a 0.86925,0.900916 0 0 1 -1.23144,0.0196 L 1.55,101.76 Z"
   class="st3"
   id="path61"
   inkscape:connector-curvature="0"
   style="fill:#50e6ff;stroke:none;stroke-width:34;stroke-linecap:butt" />
				</g>
				<g
   id="shape17697-17"
   transform="translate(38.9726,-13.7788)">
					<title
   id="title64">Sheet.17697</title>
					<path
   d="m 2.95,83.14 14.26,14.8 a 1.77314,1.83774 0 0 1 0,2.59 l -1.46,1.5 -15.49,-16.1 a 0.903894,0.936822 0 0 1 0,-1.30568 L 1.7,83.14 a 0.888147,0.920501 0 0 1 1.25033,0 z"
   class="st4"
   id="path66"
   inkscape:connector-curvature="0"
   style="fill:#1490df;stroke:none;stroke-width:34;stroke-linecap:butt" />
				</g>
			</g>
		</g>
	</g>
</svg>

<?xml version="1.0" encoding="UTF-8" standalone="no"?>
<!DOCTYPE svg PUBLIC "-//W3C//DTD SVG 1.1//EN" "http://www.w3.org/Graphics/SVG/1.1/DTD/svg11.dtd">
<!-- Generated by Microsoft Visio, SVG Export Private link Service.svg Page-1 -->
<svg xmlns="http://www.w3.org/2000/svg" xmlns:xlink="http://www.w3.org/1999/xlink" xmlns:ev="http://www.w3.org/2001/xml-events"
		width="1.73185in" height="1.4171in" viewBox="0 0 124.693 102.031" xml:space="preserve" color-interpolation-filters="sRGB"
		class="st5">
	<style type="text/css">
	<![CDATA[
		.st1 {fill:url(#grad0-6);stroke:none;stroke-linecap:butt;stroke-width:34}
		.st2 {fill:url(#grad0-10);stroke:none;stroke-linecap:butt;stroke-width:34}
		.st3 {fill:#50e6ff;stroke:none;stroke-linecap:butt;stroke-width:34}
		.st4 {fill:#1490df;stroke:none;stroke-linecap:butt;stroke-width:34}
		.st5 {fill:none;fill-rule:evenodd;font-size:12px;overflow:visible;stroke-linecap:square;stroke-miterlimit:3}
	]]>
	</style>

	<defs id="Patterns_And_Gradients">
		<linearGradient id="grad0-6" x1="0" y1="0" x2="1" y2="0" gradientTransform="rotate(90 0.5 0.5)">
			<stop offset="0.23" stop-color="#5ea0ef" stop-opacity="1"/>
			<stop offset="0.32" stop-color="#5b9fee" stop-opacity="1"/>
			<stop offset="0.48" stop-color="#509aeb" stop-opacity="1"/>
			<stop offset="0.57" stop-color="#3f92e6" stop-opacity="1"/>
			<stop offset="0.75" stop-color="#2688df" stop-opacity="1"/>
			<stop offset="0.93" stop-color="#127fd9" stop-opacity="1"/>
		</linearGradient>
		<linearGradient id="grad0-10" x1="0" y1="0" x2="1" y2="0" gradientTransform="rotate(90 0.5 0.5)">
			<stop offset="0.02" stop-color="#5ea0ef" stop-opacity="1"/>
			<stop offset="0.14" stop-color="#5b9fee" stop-opacity="1"/>
			<stop offset="0.23" stop-color="#5b9fee" stop-opacity="1"/>
			<stop offset="0.34" stop-color="#509aeb" stop-opacity="1"/>
			<stop offset="0.44" stop-color="#3f92e6" stop-opacity="1"/>
			<stop offset="0.63" stop-color="#2688df" stop-opacity="1"/>
			<stop offset="0.93" stop-color="#127fd9" stop-opacity="1"/>
		</linearGradient>
	</defs>
	<g>
		<title>Page-1</title>
		<g id="group17293-1" transform="translate(34,-34.0157)">
			<title>Private link Service.17293</title>
			<g id="group17294-2">
				<title>Sheet.17294</title>
				<g id="shape17295-3" transform="translate(14.4041,-11.9084)">
					<title>Sheet.17295</title>
					<path d="M12.65 87.37 L6.98 87.37 A7.07368 7.33137 -180 0 0 5.88 101.93 A7.58704 7.86343 0 0 1 5.97 99.2 A4.46593
								 4.62862 0 0 1 6.99 90.06 L12.66 90.06 A4.47853 4.64168 0 0 1 12.66 99.35 L11.09 99.35 A3.36992 3.49268
								 -180 0 0 10.78 100.81 A3.20615 3.32294 -180 0 0 11 102.03 L12.66 102.03 A7.07368 7.33137 -180 1
								 0 12.66 87.37 L12.65 87.37 Z" class="st1"/>
				</g>
				<g id="shape17296-7" transform="translate(21.5421,-5.81088)">
					<title>Sheet.17296</title>
					<path d="M13.68 87.48 A8.32716 8.63052 0 0 1 13.76 88.61 A7.26894 7.53375 0 0 1 13.61 90.21 A4.46593 4.62862
								 0 0 1 12.58 99.35 L6.91 99.35 A4.47853 4.64168 0 0 1 6.91 90.06 L8.47 90.06 A3.29118 3.41108 -180
								 0 0 8.79 88.6 A3.23764 3.35559 -180 0 0 8.56 87.37 L6.92 87.37 A7.07368 7.33137 -180 0 0 6.92 102.03
								 L12.59 102.03 A7.07368 7.33137 -180 0 0 13.69 87.47 L13.68 87.48 Z" class="st2"/>
				</g>
				<g id="shape17297-11" transform="translate(0,-1.0935)">
					<title>Sheet.17297</title>
					<path d="M17.58 100.4 L16.28 101.76 a0.888147 0.920501 0 0 1 -1.25978 0 L0.52 86.75 A1.78259 1.84753 0 0 1 0.52
								 84.14 L1.83 82.81 L17.58 99.11 a0.86925 0.900916 0 0 1 1.06581E-14 1.2763 L17.58 100.4 Z"
							class="st3"/>
				</g>
				<g id="shape17298-13" transform="translate(-2.80775E-13,-14.8527)">
					<title>Sheet.17298</title>
					<path d="M16.01 83.14 L17.46 84.64 a0.888147 0.920501 0 0 1 -1.42109E-14 1.30568 L1.97 102.03 L0.52 100.54 A1.78259
								 1.84753 0 0 1 0.52 97.93 L14.76 83.14 a0.888147 0.920501 0 0 1 1.25033 -1.42109E-14 Z" class="st4"/>
				</g>
				<g id="shape17299-15" transform="translate(38.8465,-1.7053E-13)">
					<title>Sheet.17299</title>
					<path d="M0.27 100.37 a0.86925 0.900916 0 0 1 -0.0188967 -1.2763 L0.27 99.1 L16.01 82.81 L17.32 84.17 A1.78259
								 1.84753 0 0 1 17.32 86.78 L2.8 101.76 a0.86925 0.900916 0 0 1 -1.23144 0.0195851 L1.55 101.76 L0.27
								 100.37 Z" class="st3"/>
				</g>
				<g id="shape17300-17" transform="translate(38.9726,-13.7788)">
					<title>Sheet.17300</title>
					<path d="M2.95 83.14 L17.21 97.94 A1.77314 1.83774 0 0 1 17.21 100.53 L15.75 102.03 L0.26 85.93 a0.903894 0.936822
								 0 0 1 -6.77236E-15 -1.30568 L1.7 83.14 a0.888147 0.920501 0 0 1 1.25033 1.42109E-14 Z" class="st4"/>
				</g>
			</g>
		</g>
	</g>
</svg>
